X:4
T:Blarney Pilgrim, The
M:6/8
R:jig
K:G
~D3 DEG|A3 z2 c|BAG AGE|GEA GED|~D3 DEG|A3 z2 c |BAG AGE|GED D2z:|
ded dBG|AGA BGE|ded dBG|ABA GBd|g2e dBG|AGA BGD|~B3 AGE|~G3 G2 z:|
ADD BDD|A2D ABc|BAG AGE|GEA GED|ADD BDD|A2D ABc|BAG AGE|GED D2 z:| 
<end>
<start>
